src/lib/packages/icons/src/assets/filled/file-text-search.svg

<svg xmlns="http://www.w3.org/2000/svg" width="24" height="24" fill="none"><path fill="currentColor" d="M17.71 12.76c.16-.01.29-.14.29-.3V9.75h-3c-2.42 0-3.75-1.33-3.75-3.75V3H6C4 3 3 4 3 6v12c0 2 1 3 3 3h7.21c.23 0 .39-.25.27-.45-.47-.77-.73-1.67-.73-2.63 0-2.75 2.24-5.01 4.96-5.16ZM11 16.75H7a.75.75 0 0 1 0-1.5h4a.75.75 0 0 1 0 1.5Zm-4-4a.75.75 0 0 1 0-1.5h7a.75.75 0 0 1 0 1.5H7ZM12.75 6V3.75l4.5 4.5H15c-1.58 0-2.25-.67-2.25-2.25Zm9.78 15.47-1.55-1.55a3.642 3.642 0 0 0 .603-2.003 3.67 3.67 0 0 0-3.666-3.667 3.671 3.671 0 0 0-3.667 3.667 3.671 3.671 0 0 0 3.667 3.667c.74 0 1.426-.224 2.003-.602l1.55 1.549a.748.748 0 0 0 1.06 0 .75.75 0 0 0 0-1.061Zm-4.613-1.387a2.17 2.17 0 0 1-2.167-2.167 2.17 2.17 0 0 1 2.167-2.167 2.17 2.17 0 0 1 2.166 2.167 2.17 2.17 0 0 1-2.166 2.167Z"/></svg>

<svg width="24" height="24" viewBox="0 0 24 24" fill="none" xmlns="http://www.w3.org/2000/svg">
<path d="M17.71 12.76C17.87 12.75 18 12.62 18 12.46V9.75H15C12.58 9.75 11.25 8.42 11.25 6V3H6C4 3 3 4 3 6V18C3 20 4 21 6 21H13.21C13.44 21 13.6 20.75 13.48 20.55C13.01 19.78 12.75 18.88 12.75 17.92C12.75 15.17 14.99 12.91 17.71 12.76ZM11 16.75H7C6.586 16.75 6.25 16.414 6.25 16C6.25 15.586 6.586 15.25 7 15.25H11C11.414 15.25 11.75 15.586 11.75 16C11.75 16.414 11.414 16.75 11 16.75ZM7 12.75C6.586 12.75 6.25 12.414 6.25 12C6.25 11.586 6.586 11.25 7 11.25H14C14.414 11.25 14.75 11.586 14.75 12C14.75 12.414 14.414 12.75 14 12.75H7ZM12.75 6V3.75L17.25 8.25H15C13.42 8.25 12.75 7.58 12.75 6ZM22.53 21.47L20.98 19.92C21.358 19.343 21.583 18.657 21.583 17.917C21.583 15.895 19.938 14.25 17.917 14.25C15.895 14.25 14.25 15.895 14.25 17.917C14.25 19.939 15.895 21.584 17.917 21.584C18.657 21.584 19.3429 21.36 19.9199 20.982L21.47 22.531C21.616 22.677 21.808 22.751 22 22.751C22.192 22.751 22.384 22.678 22.53 22.531C22.823 22.237 22.823 21.762 22.53 21.47ZM17.917 20.083C16.722 20.083 15.75 19.111 15.75 17.916C15.75 16.721 16.722 15.749 17.917 15.749C19.111 15.749 20.083 16.721 20.083 17.916C20.083 19.111 19.111 20.083 17.917 20.083Z" fill="currentColor"/>
</svg>
